source/img/icons/vk.svg

<svg width="17" height="10" viewBox="0 0 17 10" fill="none" xmlns="http://www.w3.org/2000/svg">
<path d="M14.1234 4.9002C14.1234 4.9002 16.3623 1.72708 16.5866 0.680242C16.6595 0.312285 16.4947 0.103188 16.1069 0.103188C16.1069 0.103188 14.8193 0.103188 14.168 0.103188C13.7235 0.103188 13.5587 0.293278 13.4235 0.579768C13.4235 0.579768 12.3724 2.82553 11.0969 4.24712C10.6861 4.70333 10.4781 4.84318 10.2511 4.84318C10.0646 4.84318 9.98625 4.6911 9.98625 4.27834V0.649016C9.98625 0.147997 9.92545 0.00135496 9.5066 0.00135496H6.39628C6.15578 0.00135496 6.0085 0.134417 6.0085 0.324506C6.0085 0.801084 6.73406 0.908351 6.73406 2.20231V4.87305C6.73406 5.40529 6.70569 5.61575 6.45303 5.61575C5.78016 5.61575 4.19528 3.30618 3.30623 0.678887C3.12923 0.145282 2.93737 0 2.43475 0H0.486409C0.205373 0 0 0.190085 0 0.476576C0 0.991172 0.60666 3.40801 2.99277 6.64358C4.59927 8.8201 6.70569 10 8.60269 10C9.76196 10 10.0416 9.80312 10.0416 9.31432V7.63883C10.0416 7.22607 10.2065 7.04956 10.4429 7.04956C10.7078 7.04956 11.1847 7.13238 12.2805 8.22268C13.5843 9.47862 13.6762 10 14.3896 10H16.5676C16.7919 10 17 9.89273 17 9.52342C17 9.02919 16.3623 8.15343 15.384 7.10659C14.9801 6.56755 14.3302 5.98914 14.1248 5.72301C13.8275 5.40801 13.9154 5.23014 14.1234 4.9002Z" fill="currentColor"/>
</svg>

<svg width="17" height="10" fill="none" xmlns="http://www.w3.org/2000/svg"><path d="M14.123 4.9s2.24-3.173 2.464-4.22c.073-.368-.092-.577-.48-.577h-1.939c-.444 0-.61.19-.744.477 0 0-1.052 2.246-2.327 3.667-.41.456-.619.596-.846.596-.186 0-.265-.152-.265-.565V.65c0-.501-.06-.648-.48-.648h-3.11c-.24 0-.388.133-.388.324 0 .476.726.583.726 1.877v2.671c0 .532-.028.743-.281.743-.673 0-2.258-2.31-3.147-4.937C3.13.145 2.937 0 2.435 0H.486C.206 0 0 .19 0 .477 0 .99.607 3.408 2.993 6.644 4.599 8.82 6.706 10 8.603 10c1.159 0 1.439-.197 1.439-.686V7.64c0-.413.165-.59.4-.59.266 0 .743.083 1.838 1.174C13.585 9.479 13.677 10 14.39 10h2.178c.224 0 .432-.107.432-.477 0-.494-.638-1.37-1.616-2.416-.404-.54-1.054-1.118-1.26-1.384-.296-.315-.209-.493 0-.823z" fill="currentColor"/></svg>
